X: 9096
T: Da Sixereen
R: hornpipe
M: 4/4
K: Dmajor
ag|:fed<B A2F2|BAG<F E2 AG|F>Ad>A ^G>Be>d|c2 A2 A2 ag|
fed<B A2F2|BAG<F E2 AG|F>GA>d A,>CE>G|1 F2 D2 D2 ag:|2 F2 D2 D2 fg||
aAd<e f2 ef|g<Ac>e g2 fe|d<fB<d ^G>Be>d|c2 A2 A2 fg|
a<Ad>e f2 ef|g<Ac>e g2 fe|fad<a eac<a|f2 d2 d2 fg|
aAd<e f2 ef|g<Ac>e g2 fe|d<fB<d ^G>Be>d|c2 A2 A2 ag|
fed<B A2 F2|BAG<F E2 AG|F>GA>d A,>CE>G|F2 D2 D2||

